X:1
T:Dumbell
T:Dumbell
T:A “Stumbling” Fox Trot Full Of “Tricks”
T:“ZEZ” CONFREY        
T:Copyright 1922 by LEO. FEIST, Inc.
T:Copyright 1922 by LEO. FEIST, Inc.
T:Copyright 1922 by LEO. FEIST, Inc.
C:“ZEZ” CONFREY
Z:Copyright 1922 by LEO. FEIST, Inc.
%%score 1 { ( 2 4 ) | 3 }
L:1/8
Q:1/4=170
M:2/2
K:G
V:1 treble nm="Voice"
V:2 treble nm="Piano"
V:4 treble 
V:3 bass 
V:1
"^Moderato" z8 | z8 | z8 | z4 z2 || z2 |: z8 | z4 z2 B3/2 ^A/ :| B2 =A2 G F2 E- | E4- E2 A3/2 ^G/ | %9
w: ||||||There's a|girl I met by chance,|_ _ She is|
w: ||||||Most a-|muse- ments make me tired,|_ _ So I|
 A2 =G2 F E3 | D4- D2 D2 | E2 G2 B d2 A- | A4- A2 d2 | ^A4- A2 d2 | B4- B2 B3/2 ^A/ | %15
w: dumb, but she can|dance, _ Last|night I took her to|_ _ a|Cab- * a-|ret, _ And she|
w: had my cot- tage|wired, _ And|now I lis- ten on|_ _ the|ra- * di-|o, _ There's a|
 B2 =A2 G F2 E- | E4- E2 A3/2 ^G/ | A2 =G2 F E3 | D4- D2 D2 | E2 G2 z2 B2 | B2 A2 z2 F2 | %21
w: does a brand new step,|_ _ Lots of|fun and full of|pep, _ I|call it the|“Dumb- bell” And|
w: band plays ev- 'ry day,|_ _ And most|ev'- ry thing they|play, _ Re-|minds me of|“Dumb- bell” My|
 G2 F2 z2 E2 | D2 || D2 E2 F2 |: G A2 G B2 G A- | AG B2 G A2 G | B4 A4- | A8 | A B2 A c2 A B- | %29
w: it goes this|way:|You start in|step- ping a- long, you can't|_ go wrong, do- ing the|“Dumb- bell”|_|Nev- er a more be- wild-|
w: feet start to|go.|||||||
 B A c2 A B2 A | d8- | d2 B2 c d2 G- | G4 A B2 F- | F4 G A2 E- | E8- | E2 A2 B c2 F- | F4 G A2 E- | %37
w: * er- ing tune will you|hear,|_ Then you are soothed,|* with a smooth|_ har- mo- ny,|_|* It al- most sounds|_ like a strange|
w: ||||||||
 E4 F G2 B- | B8- | B2 d2 B2 A2 | G A2 G B2 G A- | A G B2 G A2 G | B4 A4- | A8 | A B2 A c2 A B- | %45
w: _ re- ver- ie,|_|* But when you|sud- den- ly re- al- ize|_ That you're do- ing the|“Dumb- bell”|_|Take it from me, that you'll|
w: ||||||||
 B A c2 A B2 A | d8- | d2 d2 B G2 F- | F4 E4- | E2 E2 F ^G2 B- | B4 A4- | A2 A2 ^G2 A2 | %52
w: * a- gree, that it's a|bear,|_ It's so en- tran-|* cing,|_ you can't help dan-|* cing,|_ I simp- ly|
w: |||||||
 B A2 c B2 A c- | c B A2 c B2 A |1 G8- | G2 D2 E2 F2 :|2 G8- | G2 z2 z4 |] %58
w: can't get a- long with- out|_ it, That's all I can|say.|_ You start in|say.|_|
w: ||||||
V:2
!f! [FB] [FA]2 [Fc] [FB]2 [FA][Fc]- | [Fc][FB] [FA]2 [EFc] [DFB]2 [CFA] | [B,DG]2 D>^D (3EGE =D>E | %3
"^Writer of “Stumbling” “Tricks”etc." [B,DG]2 z2 !^![GBdg]2 || [DB]>[^C^A] |: %5
!p! [DB]2 [=C=A]2 [DG] [^CF]2 [=CE]- | E4 D2 [DB]>[^C^A] :|!p! [DB]2 [=C=A]2 [DG] [^CF]2 [=CE]- | %8
 E4- E2 [FA]>[^E^G] | [CFA]2 [C=E=G]2 [CDF] [CE]3 | D4- D2 [B,D]2 | [B,E]2 [DG]2 [EB] [Gd]2 [FA]- | %12
 A4- A2 [Fd]2 | ^A4- A2 [Fd]2 | B4- B2 [DB]>[^C^A] | [DB]2 [=C=A]2 [DG] [^CF]2 [=CE]- | %16
 E4- E2 [FA]>[^E^G] | [CFA]2 [C=E=G]2 [CDF] [CE]3 | D4- D2 [B,D]2 | [B,E]2 [DG]2 z2 [D^EB]2 | %20
 [DFB]2 [DFA]2 z2 [A,^B,F]2 | [=B,^CG]2 [A,CF]2 z2 [G,CE]2 | [F,=CD]2 || [A,CD]2 [A,CE]2 [A,CF]2 |: %24
!mf! G !>![DA]2 G [DB]2 G[DA]- | [DA]G [DB]2 G [DA]2 G | B4 A4- | A8 | %28
 A !>![DFB]2 A [DFc]2 A[FB]- | [FB]A [EFc]2 [FA] [FB]2 [FA] | d8- | d2 [GB]2 [Ac] [Bd]2 G- | %32
 G4 [CA] [DB]2 F- | F4 [B,^DG] [B,DA]2 [CE]- | E8- | [CE]2 [CA]2 [DB] [Ec]2 F- | %36
 F4 [CEG] [CEA]2 E- | E4 [CDF] [CEG]2 [DGB]- | B8- | B2 [DGBd]2 [^CGB]2 [=CDA]2 | %40
 G !>![DA]2 G [DB]2 G[DA]- | [DA]G [DB]2 G [DA]2 G | B4 A4- | A8 | A !>![DFB]2 A [DFc]2 A[FB]- | %45
 [FB]A [EFc]2 [FA] [FB]2 [FA] | d8- | d2 [DBd]2 [DGB] [B,DG]2 F- | F4 E4- | %49
 E2 [B,DE]2 [B,DF] [B,D^G]2 B- | B4 A4- | A2 [^CEA]2 [CE^G]2 [CEA]2 | %52
 [FB] [FA]2 [Fc] [FB]2 [FA][Fc]- | [Fc][FB] [FA]2 [EFc] [DFB]2 [CFA] |1 %54
 [B,DG]2 ((!>![EGd]2 [C_EG]2)) [^C=E=B]2 | [A,=CE]2 !>![A,CD]2 !>![A,CE]2 !>![A,CF]2 :|2 %56
 [B,DG]2 D>^D (3EGE =D>E | [B,DG]2 z2 !^![GBdg]2 z2 |] %58
V:3
 [G,,F,]2 [D,F,C]2 [D,,D,]2 [D,F,C]2 | [A,,A,]2 [D,F,C]2 [D,,D,]2 [D,F,]2 | %2
 [G,,G,]2 [B,,G,]2 [A,,G,]2 [D,F,]2 | [G,,G,]2 z2 !^![G,,G,]2 || z2 |: G,,2 D,2 B,,2 _B,,2 | %6
 A,,4 [D,,D,]2 z2 :| G,,2 D,2 B,,2 _B,,2 | A,,2 D,2 D,,2 D,2 | F,,2 D,2 D,,2 D,2 | %10
 F,,2 D,2 D,,2 D,2 | G,,2 [D,G,B,]2 [D,,D,]2 [D,G,B,]2 | [F,,F,]2 [F,A,C]2 [D,,D,]2 [D,F,C]2 | %13
 [F,,F,]2 [D,F,C]2 [D,,D,]2 [F,^A,]2 | [G,,G,]2 [D,G,B,]2 [D,,D,]2 [D,G,B,]2 | %15
 G,,2 D,2 B,,2 _B,,2 | A,,2 D,2 D,,2 D,2 | F,,2 D,2 D,,2 D,2 | F,,2 D,2 D,,2 D,2 | %19
 G,,2 [D,G,B,]2 [G,,G,]2 [^G,,^G,]2 | [A,,A,]2 [F,A,]2 [D,,D,]2 [^D,,^D,]2 | %21
 [E,,E,]2 z2 [A,,,A,,]2 z2 | [D,,D,]2 || [F,,F,]2 [E,,E,]2 [D,,D,]2 |: %24
 [G,,G,]2 [D,G,B,]2 [D,,D,]2 [D,G,]2 | [G,,G,]2 [D,G,B,]2 [D,,D,]2 [D,G,B,]2 | %26
 [E,,E,]2 z2 [A,,,A,,]2 z2 | [E,,E,]2 z2 [A,,,A,,]2 z2 | [F,,F,]2 [D,F,=C]2 [D,,D,]2 [D,F,C]2 | %29
 [F,,F,]2 [D,F,C]2 [D,,D,]2 [D,F,C]2 | [B,,B,]4 [A,,A,]4 | [G,,G,]2 z2 [D,,D,]4 | %32
 [G,,G,]2 z2 [D,,D,]2 z2 | [^D,,^D,]2 z2 [B,,,B,,]2 z2 | (([C,,C,]4 [B,,,B,,]4)) | %35
 [A,,,A,,]2 z2 z4 | [A,,,A,,]2 z2 [D,,D,]2 z2 | [A,,,A,,]2 z2 [D,,D,]2 z2 | %38
 [G,,G,]2 [D,G,B,]2 [D,,D,]2 [D,G,B,]2 | [G,,G,]2 [D,,D,]2 [E,,E,]2 [F,,F,]2 | %40
 [G,,G,]2 [D,G,B,]2 [D,,D,]2 [D,G,]2 | [G,,G,]2 [D,G,B,]2 [D,,D,]2 [D,G,B,]2 | %42
 [E,,E,]2 z2 [A,,,A,,]2 z2 | [E,,E,]2 z2 [A,,,A,,]2 z2 | [F,,F,]2 [D,F,=C]2 [D,,D,]2 [D,F,C]2 | %45
 [F,,F,]2 [D,F,C]2 [D,,D,]2 [D,F,C]2 | [B,,B,]4 [A,,A,]4 | [G,,G,]2 z2 [D,,D,]2 z2 | %48
 [B,,,B,,]2 z2 [E,,E,]2 z2 | [B,,B,]2 [^G,,^G,]2 [F,,F,]2 [=F,,=F,]2 | [E,,E,]4 [A,,A,]2 [B,,B,]2 | %51
 [^C,^C]2 [B,,B,]2 [^G,,^G,]2 [=G,,=G,]2 | [G,,F,]2 [D,F,=C]2 [D,,D,]2 [D,F,C]2 | %53
 [A,,A,]2 [D,F,C]2 [D,,D,]2 [D,F,]2 |1 [G,,G,]2 [C,_B,]2 [=F,A,]2 [A,,G,]2 | %55
 [D,^F,]2 [F,,F,]2 [E,,E,]2 [D,,D,]2 :|2 [G,,G,]2 [B,,G,]2 [A,,G,]2 [D,F,]2 | %57
 [G,,G,]2 z2 !^![G,,G,]2 z2 |] %58
V:4
 x8 | x8 | x4 C2 C2 | x6 || x2 |: x8 | C2 [A,C]2 [F,C]2 x2 :| x8 | C2 [F,C]>B, [F,C]2 C2 | x8 | %10
 B,2 [G,B,]>^A, B,2 x2 | x8 | F2 (3EFE D2 x2 | F2 (3EFE D2 x2 | [DG]2 (3EFE D2 x2 | x8 | %16
 C2 [F,C]>B, [F,C]2 C2 | x8 | B,2 [G,B,]>^A, B,2 x2 | x8 | x8 | x8 | x2 || x6 |: x8 | x8 | %26
 z2 [^CG]2 z2 [CG]2 | (3[^CF]AF [B,E]>A [CF]>A [B,E]2 | x8 | x8 | G2 D2 [CE] [CF]2 [B,G]- | %31
 [B,G]2 x6 | z2 [B,D]2 x4 | z2 [A,B,]2 x4 | C2 A,2 ^G, D3 | x8 | z2 [CD]2 x4 | z2 [F,C]2 x4 | %38
 [DG]2 G>E (3FGF E>F | D2 x6 | x8 | x8 | z2 [^CG]2 z2 [CG]2 | (3[^CF]AF [B,E]>A [CF]>A [B,E]2 | %44
 x8 | x8 | G2 D2 [CE] [CF]2 [B,G]- | [B,G]2 x6 | z2 [^G,D]2 z2 [G,D]2 | z2 x6 | %50
 z2 [^C=G]2 [CG]2 [DG]2 | [EG]2 x6 | x8 | x8 |1 x8 | x8 :|2 x4 C2 C2 | x8 |] %58

